public/icons/discord_icon_no_border.svg

<svg width="22" height="16" viewBox="0 0 22 16" fill="none" xmlns="http://www.w3.org/2000/svg">
<path d="M18.7108 1.74843C16.865 0.262517 13.9446 0.0106911 13.8194 0.00187947C13.7243 -0.00595255 13.6291 0.0159994 13.547 0.0646933C13.4649 0.113387 13.4 0.186412 13.3612 0.273647C13.3055 0.398967 13.2583 0.527874 13.2198 0.659502C14.4409 0.865879 15.9407 1.28095 17.2977 2.12315C17.3495 2.15528 17.3944 2.19729 17.4299 2.24678C17.4655 2.29627 17.4909 2.35228 17.5048 2.4116C17.5187 2.47092 17.5207 2.5324 17.5109 2.59252C17.501 2.65264 17.4794 2.71023 17.4473 2.76199C17.4151 2.81376 17.3731 2.85869 17.3236 2.89423C17.2741 2.92976 17.2181 2.9552 17.1588 2.96909C17.0995 2.98297 17.038 2.98504 16.9779 2.97517C16.9178 2.9653 16.8602 2.94369 16.8084 2.91156C14.4757 1.46321 11.5623 1.39133 11.0007 1.39133C10.4395 1.39133 7.52424 1.46368 5.19288 2.9111C5.14112 2.94322 5.08353 2.96484 5.02341 2.97471C4.96328 2.98458 4.90181 2.98251 4.84249 2.96862C4.72268 2.94057 4.61892 2.86608 4.55404 2.76153C4.48916 2.65698 4.46847 2.53094 4.49652 2.41113C4.52457 2.29133 4.59906 2.18757 4.70361 2.12269C6.06059 1.28281 7.56042 0.865879 8.78152 0.661357C8.71103 0.431328 8.64703 0.286169 8.64239 0.273647C8.6038 0.185796 8.53858 0.112292 8.45594 0.0635254C8.3733 0.0147584 8.27743 -0.006806 8.18187 0.00187947C8.05665 0.0111548 5.1363 0.262517 3.265 1.76837C2.28877 2.67179 0.333984 7.95457 0.333984 12.5218C0.333984 12.6034 0.355781 12.6813 0.395665 12.7518C1.74338 15.1216 5.42291 15.7408 6.2614 15.7681H6.27578C6.34896 15.7683 6.42114 15.7512 6.48643 15.7182C6.55172 15.6851 6.60826 15.6371 6.65143 15.578L7.49874 14.4112C5.21097 13.8208 4.04227 12.8172 3.97549 12.7574C3.88324 12.6759 3.82712 12.5612 3.81946 12.4384C3.81181 12.3156 3.85325 12.1948 3.93468 12.1025C4.01611 12.0103 4.13084 11.9541 4.25365 11.9465C4.37645 11.9388 4.49727 11.9803 4.58952 12.0617C4.61642 12.0872 6.76877 13.9131 11.0007 13.9131C15.2395 13.9131 17.3918 12.0798 17.4136 12.0617C17.5062 11.9809 17.627 11.94 17.7496 11.9482C17.8722 11.9564 17.9866 12.0129 18.0675 12.1053C18.1076 12.1508 18.1384 12.2038 18.158 12.2613C18.1776 12.3187 18.1856 12.3794 18.1818 12.44C18.1779 12.5005 18.1621 12.5597 18.1354 12.6142C18.1086 12.6686 18.0714 12.7173 18.0258 12.7574C17.959 12.8172 16.7903 13.8208 14.5026 14.4112L15.3503 15.578C15.3935 15.637 15.4499 15.685 15.5151 15.718C15.5803 15.7511 15.6524 15.7683 15.7255 15.7681H15.7394C16.5789 15.7408 20.2579 15.1212 21.6061 12.7518C21.6455 12.6813 21.6673 12.6034 21.6673 12.5218C21.6673 7.95457 19.7125 2.67226 18.7108 1.74843ZM7.98616 10.6667C7.08923 10.6667 6.36297 9.83654 6.36297 8.81162C6.36297 7.78669 7.08923 6.95654 7.98616 6.95654C8.88309 6.95654 9.60935 7.78669 9.60935 8.81162C9.60935 9.83654 8.88309 10.6667 7.98616 10.6667ZM14.0151 10.6667C13.1182 10.6667 12.392 9.83654 12.392 8.81162C12.392 7.78669 13.1182 6.95654 14.0151 6.95654C14.9121 6.95654 15.6383 7.78669 15.6383 8.81162C15.6383 9.83654 14.9121 10.6667 14.0151 10.6667Z" fill="white"/>
</svg>

<svg width="22" height="16" fill="none" xmlns="http://www.w3.org/2000/svg"><path d="M18.71 1.748C16.866.263 13.946.011 13.82.002a.46.46 0 0 0-.459.272 3.076 3.076 0 0 0-.141.386c1.22.206 2.72.621 4.078 1.463a.463.463 0 1 1-.49.789c-2.332-1.449-5.246-1.52-5.807-1.52-.561 0-3.477.072-5.808 1.52a.464.464 0 0 1-.49-.79C6.062 1.283 7.56.867 8.783.663c-.071-.23-.135-.376-.14-.388a.458.458 0 0 0-.46-.272c-.125.01-3.046.26-4.917 1.766C2.289 2.672.334 7.955.334 12.522c0 .081.022.16.062.23 1.347 2.37 5.027 2.989 5.865 3.016h.015a.464.464 0 0 0 .375-.19l.848-1.167c-2.288-.59-3.457-1.594-3.524-1.654a.464.464 0 0 1 .615-.695c.026.025 2.179 1.851 6.41 1.851 4.24 0 6.392-1.833 6.414-1.851a.464.464 0 0 1 .612.695c-.067.06-1.236 1.064-3.523 1.654l.847 1.167a.464.464 0 0 0 .376.19h.013c.84-.027 4.519-.647 5.867-3.016a.469.469 0 0 0 .061-.23c0-4.567-1.955-9.85-2.956-10.774ZM7.987 10.667c-.897 0-1.623-.83-1.623-1.855s.726-1.855 1.623-1.855 1.623.83 1.623 1.855-.726 1.855-1.623 1.855Zm6.03 0c-.898 0-1.624-.83-1.624-1.855s.726-1.855 1.623-1.855 1.623.83 1.623 1.855-.726 1.855-1.623 1.855Z" fill="#fff"/></svg>
